X:1
T:Der Morgenstern ist aufgedrungen
T:Nach Michael Prätorius, 1609  -  Satz: Johann Georg Herzog
T:Der Morgenstern ist aufgedrungen
T:CPDL - Creative Commons Attribution Non Commercial 3.0
T:CPDL - Creative Commons Attribution Non Commercial 3.0
C:Johann Georg Herzog
Z:CPDL - Creative Commons Attribution Non Commercial 3.0
%%score [ ( 1 2 ) ( 3 4 ) ]
L:1/8
Q:1/4=90
M:4/4
K:G
V:1 treble nm="Sopran\nAlt"
V:2 treble 
V:3 bass nm="Tenor\nBass"
V:4 bass 
V:1
"^Con moto"!mf! d2 | d2 B2 G2 A2 | (Bc d4) B2 | c4 B4 | z2 d2 d4 | B2 A4 G2 | c2 A2 d4 | B4 z2 B2 | %8
w: 1.~Der|Mor- gen- stern ist|auf- * * ge-|drun- gen,|er leucht'|da- her zu|die- ser Stun-|den hoch|
w: 2.~Chris-|tus im Him- mel|wohl * * be-|dach- te,|wie er|uns reich und|se- lig mach-|te, wie-|
w: 3.~O|heil'- ger Mor- gen-|stern * * wir|prei- sen|dich heu-|te hoch mit|fro- hen Wei-|sen. Du|
 BBBc d2 d2 | (d2!>(! cB A4)!>)! |!p! G2 FE D4 | z2!mf! D2 G2 G2 | A2 A2 Bc d2- | %13
w: ü- ber Berg und tie- fe|Tal', _ _ _|tie- fe * Tal',|vor Freud' singt|uns der lie- * *|
w: der uns brächt' ins Pa- ra-|dies, _ _ _|Pa- ra- * dies;|da- rum er|Got- tes Him- * *|
w: leuch- test vie- len nah und|fern, _ _ _|nah und * fern;|so leucht' auch|uns, Herr~ Christ, _ _|
 d2 !breath!B2 (B2 AG | B4) A4 | G4 z2 |] %16
w: * ben En- * *|* gel|Schar.|
w: * mel gar _ _|_ ver-|ließ.|
w: _ du Mor- * *|* gen-|stern!|
V:2
 G2 | A2 D2 E2 F2 | (G4 F2) G2 | (E3 F) ^G4 | x2 A2 =G4 | D2 D4 B,2 | E2 DE (FE F2) | G4 x2 D2 | %8
w: ||||||||
w: ||||||||
w: ||||||||
 GGGG F4- | F2 G2 F4 | D2 DC B,4 | x2 D2 B,2 B,2 | D2 D2 (D3 G | F2) G2 (D2 E2 | FD G4) F2 | %15
w: * * * * tie-|\- fe Tal',||||||
w: * * * * Pa-|\- ra- dies,||||||
w: * * * * nah|_ und fern,||||||
 G4 x2 |] %16
w: |
w: |
w: |
V:3
!mf! B,2 | A,2 G,A, B,2 D2 | D6 D2 | (C3 D) E4 | z2 A,2 B,4 | G,2 F,4 G,2 | G,2 F,G, (A,2 D2) | %7
 D4 z2 B,2 | DDDG, A,4- |!>(! A,2 G,!>)!B, D4 |!p! G,2 G,2 G,4 | z2!mf! F,2 G,2 G,2 | %12
 G,2 F,2 (G,A, B,2 | A,2) !breath!G,2 (G,2 E2 | D6) A,2 | B,4 z2 |] %16
V:4
 G,2 | F,2 G,2 E,2 D,2 | (G,A, B,4) G,2 | A,4 E,4 | x2 F,2 G,4 | G,2 D,4 E,2 | C,2 D,2 D,4 | %7
w: |||||||
w: |||||||
w: |||||||
 G,4 x2 G,2 | G,G,G,E, D,4- | D,2 D,2 D,2 (D,2 | B,,2) C,2 G,,4 | x2 D,2 E,2 E,2 | %12
w: ||* * * tie-|* fe Tal',||
w: ||* * * Pa-|* ra- dies;||
w: ||* * * nah|_ und fern;||
 D,2 D,2 (G,,2 G,2 | D,2) E,2 (B,,2 C,2 | D,6) D,2 | G,,4 x2 |] %16
w: ||||
w: ||||
w: ||||

